X: 327
T:Col. Thornton's March. JaW.326
M:3/4
L:1/8
Q:120
S:James Winder Ms, Lancashire, 1835-41
R:March
O:England
A:Wyresdale,Lancashire
H:1/8
Z:vmp.Chris Partington, Aug 2004
K:G
"Unedited"dB G2 GG|GB Ac B2|BB Bd ce|dg fedc|BG G2 GG|G6:|!
Bc d2 d2|dg fe d2|d2 d2 Bc|dBGB dB|GB A2 AA|!
AcBA G2|GG GB Ac|B2BB Bd|ce dg fe|dcBA G2|GG G4||!
zzzz|zzzz|zzzz||!
M:4/4
"Edited"dB| G2 GG GBAc| B2 BB Bdce|dgfe dcBA| G2 GG G2:|!
Bc| d2 d2 dgfe| d2 d2 d2 Bc|dBGB dBGB| A2 AA AcBA|!
 G2 GG GBAc|B2 BB Bdce| dgfe dcBA| G2 GG G2|]
